X: 1
T: Mets\"akukkia    [Dm]
T: Woodland Flowers
O: Trad Finland
Z: 1998 by John Chambers <jc:trillian.mit.edu>
M: 3/4
L: 1/8
K: Dm
z4 \
| "Dm"A,2 D2 E2 | F2 E2 D2 | A6- | A6 \
| A,2 D2 E2 | F2 E2 D2 | "Gm"B6- | B6 \
| G2 A2 B2 | B2 A2 G2 | "Dm"A6- | [A6F6] |
| "A7"A,2 ^C2 E2 | G2 F2 E2 | "Dm"D6- | D2 :: d3c \
| "C7"c6- | c2 d3 B | "F"A6- | A2 B3 A \
| "A7"G6- | G2 A3 G | "Dm"F6- | F2 A2 A2 |
| "Dm"A6- | A2 G2 F2 | "A7"E6- | E2 F2 E2 \
| A,2 ^G,2 A,2 | F4 E2 | "Dm"D6- | D2 :: z2 ~d>^c \
| "Dm"d z3 ~A>^G | A  z3 ~F>E | F z3  ~D>^C | D4 A2 |
| "Gm"B4 A2 | G2 B2 d2 | "Dm"A6- | A6 \
| "A7"A2 ^c3 d | e6 | "Dm"A2 d3 e | f6 \
| "A7"A2 ^c3 e | f4 e2 | "Dm"d6- | d2 :|

%%sep 1 1 500

